X:509
T:I Dreamed Last Night of My True Love
D:3 Ravens, Malinky
Z:Nigel Gatherer
M:3/4
L:1/8
K:F
C2 F2 c2 | c6 |
M:4/4
 B>A B2 c2 BA |
M:3/4
 F6 | C2 F2 c2 | B6 | Bc d2 cB |
M:4/4
 c6-c2 |
M:3/4
C2 F2 c2 | c6 | B2 A2 BG/F/ |
M:4/4
 _E6 AB |
M:3/4
 c4 B2 | GF _E3 F |
M:3/4
 F6 |]
<end>
<start>
